!!!SOCIAL_FUNCTION:	songs of the drum religion
!!!PDT:	1932
!!!OTL: No_89_Song_for_Man_Who_Lights_Pipe.krn
!!!REG: Wisconsin
!!!LANG: Non-Tone
!!!LING_GROUP: Algonquin
**kern
*staff1
=1-
*clefF4
*k[f#]
*M3/4
16d\LK
8d\
16d\Jk
8.e\L
16d\Jk
8d\L
8e\J
=2||
*M2/4
16d\LK
8d\
16d\Jk
8.d\L
16B\Jk
=3||
*M3/4
(2d\
4A\)
=4!|:
16d\LK
8d\
16d\Jk
8.e\L
16d\Jk
8d\L
8e\J
=5||
*M2/4
16d\LK
8d\
16d\Jk
8d\
8r
=6
2d\
=7||
*M3/4
8.d\L
16c\Jk
8.c\L
16c\Jk
4A\
=8||
*M2/4
8.G\L
16G\Jk
8.E\L
16D\Jk
=9
8D\L
8D\J
8D\
8r
=10
2G\
=11
8.G\L
16E\Jk
8.E\L
16G\Jk
=12
4E\
8D\L
8D\J
=13
2D\
=14
4D\
4r
==
*-
